X: 2
T: The Four Courts
R: reel
M: 4/4
L: 1/8
K: Dmaj
eA ~A2 eAfA | eA ~A2 d2 cd | eA ~A2 ~f2 fe |1 ~df ~f2 df af :|2 df ~f2 d2 cA|B2 gB aB gB | ~B2 ge d2 cA | ~B2 Bg aBgB | fa ge d2 cA |~B2 Bg aBgB | B2 ge d2 cd | ea ~a2 ag ea | ag ec d2 cd |~e3 A ~f3 d | ~e3 c d2 cd | ~e3 A f3 e | d ~f3 dfaf |~e3 A ~f3 d | ~e3 c d2 cd | ea ~a2 ag ea | ag ec d2 cd |


Tune 2278	Setting 25017

